src/images/single-assets/VIRTUAL.svg

<svg xmlns="http://www.w3.org/2000/svg" width="512" height="512" fill="none"><path fill="url(#a)" fill-rule="evenodd" d="M312.485 263.363c24.565-8.572 47.715-23.197 65.409-39.077l.013.027a3.804 3.804 0 0 0 .434-5.082 3.834 3.834 0 0 0-5.027-.966c-17.749 10.611-37.337 19.012-57.417 24.14.6-7.637.473-15.321-.514-22.963-2.27-16.967-8.032-33.921-20.013-46.834-13.27-14.679-35.056-20.165-53.861-14.291-22.592 6.717-41.423 27.07-42.148 51.357-.913 31.981 28.878 58.047 59.193 60.978 3.536.387 7.104.575 10.691.58-5.59 12.216-12.844 23.886-20.605 34.692-23.835-39.316-59.566-71.518-102.038-89.131a176.6 176.6 0 0 0-30.638-9.782c-3.573-.736-6.971-1.392-10.745-1.806a3.86 3.86 0 0 0-2.586.685 3.836 3.836 0 0 0-1.23 4.847 3.84 3.84 0 0 0 1.949 1.827 256.5 256.5 0 0 1 64.471 45.389 245.6 245.6 0 0 1 56.991 83.846c5.708 13.609 23.613 18.587 35.594 9.836a30.6 30.6 0 0 0 5.01-4.644 221 221 0 0 0 28.206-38.056c8.182-13.953 14.922-29.452 18.861-45.572m-53.156 62.331.004.008.309.629a13 13 0 0 0-.313-.637m18.287-78.451c1.876-8.013 2.808-16.16 2.509-24.362-.792-14.719-6.46-35.513-23.962-35.835-15.07-.174-28.931 14.064-24.62 29.185 6.382 22.068 25.44 30.116 46.073 31.012" clip-rule="evenodd"/><path fill="url(#b)" d="M389.539 209.273c1.545 7.199 3.922 11.762 10.866 10.838 5.964-.789 10.88-6.771 10.88-12.752s-4.943-9.849-10.88-8.912c-7.535 1.191-12.128 4.978-10.866 10.826"/><defs><linearGradient id="a" x1="101" x2="411" y1="156" y2="356" gradientUnits="userSpaceOnUse"><stop stop-color="#44BCC3"/><stop offset="1" stop-color="#236D66"/></linearGradient><linearGradient id="b" x1="101" x2="411" y1="156" y2="356" gradientUnits="userSpaceOnUse"><stop stop-color="#44BCC3"/><stop offset="1" stop-color="#236D66"/></linearGradient></defs></svg>

<svg width="512" height="512" viewBox="0 0 512 512" fill="none" xmlns="http://www.w3.org/2000/svg">
<path fill-rule="evenodd" clip-rule="evenodd" d="M312.485 263.363C337.05 254.791 360.2 240.166 377.894 224.286L377.907 224.313C378.597 223.669 379.022 222.793 379.102 221.855C379.182 220.916 378.911 219.982 378.341 219.231C377.77 218.48 376.941 217.966 376.013 217.788C375.085 217.609 374.124 217.779 373.314 218.265C355.565 228.876 335.977 237.277 315.897 242.405C316.497 234.768 316.37 227.084 315.383 219.442C313.113 202.475 307.351 185.521 295.37 172.608C282.1 157.929 260.314 152.443 241.509 158.317C218.917 165.034 200.086 185.387 199.361 209.674C198.448 241.655 228.239 267.721 258.554 270.652C262.09 271.039 265.658 271.227 269.245 271.232C263.655 283.448 256.401 295.118 248.64 305.924C224.805 266.608 189.074 234.406 146.602 216.793C136.71 212.608 126.455 209.334 115.964 207.011C112.391 206.275 108.993 205.619 105.219 205.205C104.302 205.118 103.385 205.361 102.633 205.89C101.881 206.418 101.343 207.198 101.118 208.087C100.892 208.976 100.993 209.916 101.403 210.737C101.813 211.559 102.504 212.207 103.352 212.564C127.064 224.289 148.812 239.6 167.823 257.953C192.46 281.655 211.869 310.21 224.814 341.799C230.522 355.408 248.427 360.386 260.408 351.635C262.247 350.279 263.927 348.721 265.418 346.991C276.159 335.348 285.615 322.589 293.624 308.935C301.806 294.982 308.546 279.483 312.485 263.363ZM259.329 325.694L259.333 325.702L259.642 326.331C259.543 326.116 259.439 325.903 259.329 325.694ZM277.616 247.243C279.492 239.23 280.424 231.083 280.125 222.881C279.333 208.162 273.665 187.368 256.163 187.046C241.093 186.872 227.232 201.11 231.543 216.231C237.925 238.299 256.983 246.347 277.616 247.243Z" fill="url(#paint0_linear_5925_16)"/>
<path d="M389.539 209.273C391.084 216.472 393.461 221.035 400.405 220.111C406.369 219.322 411.285 213.34 411.285 207.359C411.285 201.378 406.342 197.51 400.405 198.447C392.87 199.638 388.277 203.425 389.539 209.273Z" fill="url(#paint1_linear_5925_16)"/>
<defs>
<linearGradient id="paint0_linear_5925_16" x1="101" y1="156" x2="411" y2="356" gradientUnits="userSpaceOnUse">
<stop stop-color="#44BCC3"/>
<stop offset="1" stop-color="#236D66"/>
</linearGradient>
<linearGradient id="paint1_linear_5925_16" x1="101" y1="156" x2="411" y2="356" gradientUnits="userSpaceOnUse">
<stop stop-color="#44BCC3"/>
<stop offset="1" stop-color="#236D66"/>
</linearGradient>
</defs>
</svg>
